X:1
T:Birksted
%%score { 1 | 2 }
L:1/8
Q:1/4=48
M:4/4
K:F
V:1 treble 
V:2 bass 
V:1
"^Largo" z2 F(E/D/) CBAG | (F/E/)FcF dc B (A/4B/4c/) | BAGc AGF>G | E2 GC (A/B/)cF(D/F/) | %4
 DCcG B(c/B/)A(G/F/) | EDde fBA(G/F/) | F4 z4 |] %7
V:2
 F,,2 G,G, A,B,CC, | D,D,A,,A, B,A,G,F, | G,F,E,C, F,E,D,G,, | C,2 E,E, F,E, (A,,/=B,,/)C, | %4
 G,,C,E,C, D,E,F,G, | A,D,B,G, A,B,CC, | F,4 z4 |] %7

